src/assets/svg/skill/figma.svg

<svg width="800px" height="800px" viewBox="0 0 15 15" fill="none" xmlns="http://www.w3.org/2000/svg">
  <path fill-rule="evenodd" clip-rule="evenodd"
    d="M7.00005 2.04999H5.52505C4.71043 2.04999 4.05005 2.71037 4.05005 3.52499C4.05005 4.33961 4.71043 4.99999 5.52505 4.99999H7.00005V2.04999ZM7.00005 1.04999H8.00005H9.47505C10.842 1.04999 11.95 2.15808 11.95 3.52499C11.95 4.33163 11.5642 5.04815 10.9669 5.49999C11.5642 5.95184 11.95 6.66836 11.95 7.475C11.95 8.8419 10.842 9.95 9.47505 9.95C8.92236 9.95 8.41198 9.76884 8.00005 9.46266V9.95L8.00005 11.425C8.00005 12.7919 6.89195 13.9 5.52505 13.9C4.15814 13.9 3.05005 12.7919 3.05005 11.425C3.05005 10.6183 3.43593 9.90184 4.03317 9.44999C3.43593 8.99814 3.05005 8.28163 3.05005 7.475C3.05005 6.66836 3.43594 5.95184 4.03319 5.5C3.43594 5.04815 3.05005 4.33163 3.05005 3.52499C3.05005 2.15808 4.15814 1.04999 5.52505 1.04999H7.00005ZM8.00005 2.04999V4.99999H9.47505C10.2897 4.99999 10.95 4.33961 10.95 3.52499C10.95 2.71037 10.2897 2.04999 9.47505 2.04999H8.00005ZM5.52505 8.94998H7.00005L7.00005 7.4788L7.00005 7.475L7.00005 7.4712V6H5.52505C4.71043 6 4.05005 6.66038 4.05005 7.475C4.05005 8.28767 4.70727 8.94684 5.5192 8.94999L5.52505 8.94998ZM4.05005 11.425C4.05005 10.6123 4.70727 9.95315 5.5192 9.94999L5.52505 9.95H7.00005L7.00005 11.425C7.00005 12.2396 6.33967 12.9 5.52505 12.9C4.71043 12.9 4.05005 12.2396 4.05005 11.425ZM8.00005 7.47206C8.00164 6.65879 8.66141 6 9.47505 6C10.2897 6 10.95 6.66038 10.95 7.475C10.95 8.28962 10.2897 8.95 9.47505 8.95C8.66141 8.95 8.00164 8.29121 8.00005 7.47794V7.47206Z"
    fill="#e8e8e8" />
</svg>

<svg width="800" height="800" viewBox="0 0 15 15" fill="none" xmlns="http://www.w3.org/2000/svg"><path fill-rule="evenodd" clip-rule="evenodd" d="M7 2.05H5.525a1.475 1.475 0 0 0 0 2.95H7V2.05zm0-1h2.475a2.475 2.475 0 0 1 1.492 4.45A2.475 2.475 0 0 1 8 9.463V11.425A2.475 2.475 0 1 1 4.033 9.45a2.471 2.471 0 0 1-.983-1.975c0-.807.386-1.523.983-1.975a2.475 2.475 0 0 1 1.492-4.45H7zm1 1V5h1.475a1.475 1.475 0 1 0 0-2.95H8zm-2.475 6.9H7V6H5.525a1.475 1.475 0 0 0-.006 2.95h.006zM4.05 11.425c0-.813.657-1.472 1.47-1.475H7v1.475a1.475 1.475 0 0 1-2.95 0zM8 7.472a1.475 1.475 0 1 1 0 .006v-.006z" fill="#e8e8e8"/></svg>
